packages/icons/web/twitter_large.svg

<svg width="24" height="24" viewBox="0 0 24 24" fill="none" xmlns="http://www.w3.org/2000/svg">
<path d="M23.075 5.13094C22.2601 5.49272 21.3843 5.73636 20.4651 5.84618C21.4037 5.28414 22.1245 4.39356 22.4632 3.33224C21.5855 3.85275 20.6128 4.23113 19.5773 4.43509C18.7495 3.55189 17.5673 3 16.2605 3C13.3266 3 11.1707 5.73728 11.8334 8.57885C8.05785 8.38966 4.70961 6.5808 2.46792 3.83152C1.2774 5.87387 1.85051 8.54562 3.87348 9.89857C3.12963 9.87458 2.42824 9.67062 1.81637 9.33008C1.76653 11.4352 3.27545 13.4046 5.46084 13.843C4.82128 14.0165 4.12081 14.0571 3.40834 13.9205C3.98607 15.7257 5.66388 17.0389 7.65362 17.0759C5.74325 18.5737 3.33636 19.2428 0.925781 18.9585C2.93675 20.2478 5.3261 21 7.89173 21C16.3288 21 21.0955 13.8744 20.8075 7.48338C21.6953 6.84197 22.4659 6.04183 23.075 5.13094Z" fill="#212933"/>
</svg>

<svg width="24" height="24" fill="none" xmlns="http://www.w3.org/2000/svg">
    <path d="M23.075 5.13a9.072 9.072 0 01-2.61.716 4.552 4.552 0 001.998-2.514c-.878.52-1.85.9-2.886 1.103A4.536 4.536 0 0016.26 3c-2.933 0-5.09 2.737-4.427 5.579a12.9 12.9 0 01-9.365-4.747 4.55 4.55 0 001.405 6.067 4.525 4.525 0 01-2.057-.569c-.05 2.105 1.46 4.075 3.645 4.513-.64.174-1.34.214-2.053.078a4.548 4.548 0 004.246 3.155 9.137 9.137 0 01-6.728 1.883A12.864 12.864 0 007.892 21c8.437 0 13.204-7.126 12.916-13.517a9.252 9.252 0 002.267-2.352z" fill="currentColor"/>
</svg>
